X:409
L:1/8
M:3/4
K:Amin
"E"{^d} e4 e2 |{^d} e4 e2 |{^d} e>e e2 e2 | e2 e2 e2 |:"Am" A>c e^d ed | e>f e2 dc | 
"E" d>^c dc dc | de d2 cB |"Am" cB cB"^(G)" cB |"^(F#)" cd c2"^(F)" BA |"E" B>c B2 A^G ||1 
"Am" A4"E" .E2 ||2"Am" A2 A2 z2 |:"E" B>c B^G EB |"Am" c>d cB Ac |"G" d>e dB GB |"C" c>c d2 ^d2 | 
"E" e>c' b3 a | ^gb f3 d | c>e B2 e2 |"Am" A2 A2 z2 ::[K:A]"A" c>e A2 ce |"D" d>f B2 df | 
"E" g>b e2 e/f/=g/^g/ |"A" .a z (3c'ae cA |"A" c/d/^d/e/ A2 ce |"D" d/e/f B2 df |"E" e>f ga bg | 
"A" a2 a2 z2 :|

